X:14160
T:Reel of Mullinavet, The
C:Trad
S: Bowing Styles in Irish fiddle playing, Vol. 1
N:Tony's Blue Book, p.35
M:C
K:G
f |: gfed BAGF | GBAG EDB,E | GE E2 GABd | eBBA Beef|
(3gfe fe dBAF | BAGF E3F|GE E2 GABA | (3B^cd ed e3 f |
gfed BAGF | GBAG E3F | GE E2 BAGd | eBBA Beef |
(3gfe fe dBAF | (3BBA GF E2 B,E | GE E2 GABA| (3B^cd ed e3 f |
gebe gabg|afdf afdf | gebe gabg | afdf geef |
geBe ga (3bag | afde fa a2 | (3bag ^gf gefd | Bgf^d e3f:|
